F[BALLADE
CUT[Die dienende Schwester
    Es wohnt ein Markgraf an dem Rhein,]
CNR[der hatt' drei schoene Toechterlein,]
REG[Mitteleuropa, Deutschland (DDR) , Brandenburg]
SRC[4, S. 108
    1856 gedruckt in Berlin]
KEY[Q0075T 08  F 2/4]
MEL[-5_  1_-5_  1_5_  333
    1  222-7  131
    -5  1_-5_  1654  3_2_  1_ //] >>
FCT[Ballade, Adelige als Dienstmagd, Tod; Kinder - Spiel, Tanz]
